X: 8
T: The Three Camps (reprise)
P: piffero primo a0468
O: strube
%R: march
F: http://ancients.sudburymuster.org/mus/ssp/pdf/struberevF.pdf
Z: 2019 John Chambers <jc:trillian.mit.edu>
M: 4/4
L: 1/8
K: G
c |\
B2 A2 G2 g2 | f2 e2 d3 c | B2 A2 G2 g2 | f2 e2 d3 d |\
g>d (3(BAG) e3 e | (3(def) (3(gdB) A3 c | B2 A2 G2 g2 |\
(3(faf) (3(def) g2 |]

% %sep 1 1 200
% %center - - - - - - - - - -
% Whatever we want at the bottom of each set belongs here.
